X:1
T:Einigkeit und Recht und Freiheit
T:Einigkeit und Recht und Freiheit
T:Deutschland \"uber alles das Deutschlandlied
T:Joseph Haydn
C:Joseph Haydn
L:1/8
M:4/4
K:F
V:1 treble 
V:1
|: F3 G A2 G2 | B2 A2 GE F2 | d2 c2 B2 A2 | G2 AF c4 :| G2 A2 GE C2 | B2 A2 GE C2 | c2 B2 A3 A | %7
 =B3 B c4 |: f3 e ed c2 | d3 c cB A2 | G3 A/B/ cd BG | F2 AG F4 :| %12

